public/logos/XC.svg

<?xml version="1.0" encoding="UTF-8"?>
<svg xmlns="http://www.w3.org/2000/svg" xmlns:xlink="http://www.w3.org/1999/xlink" width="176pt" height="53.28pt" viewBox="0 0 176 53.28" version="1.1">
<defs>
<clipPath id="clip1">
  <path d="M 105 45 L 174 45 L 174 53.28125 L 105 53.28125 Z M 105 45 "/>
</clipPath>
</defs>
<g id="surface1">
<path style=" stroke:none;fill-rule:nonzero;fill:rgb(91.954041%,12.600708%,15.896606%);fill-opacity:1;" d="M 43.378906 10.964844 L 43.40625 10.964844 C 43.425781 10.964844 43.425781 10.964844 43.425781 10.964844 C 46.523438 10.632812 49.621094 7.84375 49.125 4.558594 C 48.675781 1.554688 45.957031 -0.335938 43.050781 0.0429688 C 41.394531 0.253906 39.410156 1.273438 38.582031 2.785156 C 37.800781 4.15625 37.683594 5.8125 37.992188 7.324219 C 38.535156 9.851562 40.945312 11.035156 43.378906 10.964844 "/>
<path style=" stroke:none;fill-rule:nonzero;fill:rgb(91.954041%,12.600708%,15.896606%);fill-opacity:1;" d="M 7 25.054688 C 7.355469 21.980469 5.082031 20.5625 3.003906 20.019531 C 1.160156 19.59375 -0.351562 19.355469 0.0703125 17.9375 C 0.0976562 17.890625 0.121094 17.84375 0.144531 17.796875 C 0.804688 16.378906 2.460938 15.644531 4.683594 15.054688 C 4.988281 14.984375 5.296875 14.890625 5.628906 14.816406 C 7.707031 14.34375 10.167969 14.15625 12.53125 13.730469 C 13.59375 13.542969 14.609375 13.304688 15.554688 12.972656 C 17.753906 12.003906 19.171875 9.878906 20.070312 7.726562 C 20.449219 6.851562 20.734375 5.953125 20.945312 5.125 C 21.277344 3.824219 21.515625 2.691406 21.914062 1.863281 C 22.316406 1.105469 22.886719 0.609375 23.78125 0.46875 C 25.53125 0.277344 26.242188 2.195312 26.808594 4.960938 C 27.472656 8.152344 27.375 12.644531 28.914062 15.386719 C 29.738281 16.496094 31.324219 16.898438 33.214844 16.898438 C 35.460938 16.898438 38.132812 16.308594 40.519531 15.597656 C 43.5 14.722656 46.097656 13.917969 47.753906 14.0625 C 48.605469 14.132812 49.21875 14.464844 49.527344 15.195312 C 49.597656 15.386719 49.621094 15.597656 49.621094 15.8125 C 49.265625 17.535156 46.265625 19.546875 42.433594 21.886719 C 37.589844 24.792969 31.464844 27.417969 28.984375 30.394531 C 28.558594 30.964844 28.296875 31.601562 28.203125 32.265625 C 27.519531 35.195312 29.882812 39 32.625 42.121094 C 35.25 45.101562 37.683594 47.628906 37.566406 49.285156 C 37.46875 49.617188 37.234375 49.921875 36.832031 50.160156 C 36.429688 50.417969 35.933594 50.539062 35.390625 50.515625 C 33.214844 50.441406 29.976562 48.386719 26.429688 45.761719 C 21.964844 42.476562 17.753906 38.007812 14.375 36.636719 C 14.066406 36.542969 13.761719 36.472656 13.453125 36.472656 C 10.96875 36.402344 8.796875 39.378906 7.402344 42.285156 C 6.148438 44.980469 5.203125 47.296875 4.136719 47.085938 C 3.925781 47.039062 3.710938 46.898438 3.476562 46.636719 C 2.886719 45.953125 2.695312 44.769531 2.742188 43.257812 C 2.8125 41.765625 3.144531 39.992188 3.570312 38.03125 C 4.375 34.367188 5.886719 30.371094 6.621094 27.132812 C 6.785156 26.402344 6.925781 25.714844 7 25.054688 "/>
<path style=" stroke:none;fill-rule:nonzero;fill:rgb(91.954041%,12.600708%,15.896606%);fill-opacity:1;" d="M 55.082031 36.566406 C 54.5625 37.675781 53.617188 38.148438 52.765625 38.148438 C 51.914062 38.148438 51.15625 37.558594 51.300781 36.542969 L 52.175781 30.445312 C 52.316406 29.378906 53.238281 28.835938 54.113281 28.835938 C 54.894531 28.835938 55.648438 29.355469 55.71875 30.445312 L 61.15625 28.835938 C 60.613281 24.769531 57.421875 23.636719 54.84375 23.636719 C 50.992188 23.636719 46.785156 25.574219 46.121094 30.230469 L 45.246094 36.425781 C 44.585938 41.058594 48.226562 43.351562 52.082031 43.351562 C 54.65625 43.351562 58.320312 42.027344 60.257812 37.773438 Z M 61.628906 36.636719 C 61.015625 41.082031 64.5625 43.351562 68.414062 43.351562 C 72.316406 43.351562 76.523438 41.105469 77.136719 36.636719 L 77.988281 30.632812 C 78.652344 25.929688 75.082031 23.660156 71.226562 23.636719 C 67.351562 23.683594 63.121094 25.953125 62.457031 30.632812 Z M 70.402344 29.121094 C 71.132812 29.121094 71.984375 29.640625 71.867188 30.515625 L 71.015625 36.707031 C 70.875 37.722656 69.953125 38.148438 69.148438 38.148438 C 68.34375 38.148438 67.609375 37.605469 67.707031 36.707031 L 68.558594 30.515625 C 68.675781 29.617188 69.667969 29.121094 70.402344 29.121094 M 88.414062 23.613281 C 83.828125 23.613281 80.425781 25.859375 79.714844 31.035156 L 78.058594 42.996094 L 84.253906 42.996094 L 85.910156 31.105469 C 86.191406 29 89.148438 28.695312 90.777344 29.261719 L 91.511719 24.085938 C 89.996094 23.683594 89.078125 23.613281 88.414062 23.613281 M 96.804688 35.855469 C 101.203125 36.851562 106.097656 35.054688 106.757812 30.5625 C 107.445312 25.90625 104.371094 23.589844 100.445312 23.589844 C 96.523438 23.589844 92.292969 26.09375 91.628906 30.84375 L 90.847656 36.28125 C 90.1875 40.914062 93.78125 43.328125 97.609375 43.328125 C 99.808594 43.328125 102.410156 42.925781 105.058594 40.253906 L 102.078125 37.25 C 100.328125 38.90625 96.40625 38.71875 96.804688 35.855469 M 97.65625 30.394531 C 97.800781 29.332031 98.839844 28.71875 99.714844 28.71875 C 100.894531 28.71875 101.320312 29.59375 101.179688 30.492188 C 100.96875 32.40625 98.910156 32.878906 97.398438 32.214844 Z M 106.5 42.972656 L 112.691406 42.972656 L 114.632812 29.238281 C 114.984375 29.097656 115.480469 29.023438 115.90625 29.023438 C 116.855469 29.023438 117.703125 29.425781 117.515625 30.796875 L 115.789062 42.972656 L 121.960938 42.972656 L 123.6875 30.75 C 124.417969 25.503906 120.777344 23.589844 116.191406 23.589844 C 113.730469 23.589844 111.132812 24.179688 109.003906 25.125 Z M 143.09375 16.992188 L 136.851562 16.992188 L 135.90625 23.964844 C 135.128906 23.707031 134.300781 23.589844 133.496094 23.589844 C 129.832031 23.589844 126.261719 25.714844 125.671875 29.972656 L 124.75 36.472656 C 124.015625 41.648438 127.539062 43.328125 131.535156 43.328125 C 134.324219 43.328125 137.230469 42.59375 139.59375 41.71875 Z M 133.828125 38.363281 C 133.472656 38.480469 133.046875 38.550781 132.644531 38.550781 C 131.628906 38.550781 130.636719 38.101562 130.777344 37.015625 L 131.722656 30.417969 C 131.910156 29.238281 133 28.765625 133.96875 28.765625 C 134.441406 28.765625 134.84375 28.835938 135.148438 28.976562 Z M 142.195312 36.636719 C 141.582031 41.082031 145.128906 43.351562 148.980469 43.351562 C 152.882812 43.351562 157.089844 41.105469 157.703125 36.636719 L 158.554688 30.632812 C 159.214844 25.929688 155.644531 23.660156 151.792969 23.636719 C 147.894531 23.683594 143.683594 25.953125 143.023438 30.632812 Z M 150.964844 29.121094 C 151.699219 29.121094 152.550781 29.640625 152.433594 30.515625 L 151.578125 36.707031 C 151.4375 37.722656 150.515625 38.148438 149.714844 38.148438 C 148.910156 38.148438 148.175781 37.605469 148.292969 36.707031 L 149.144531 30.515625 C 149.238281 29.617188 150.230469 29.121094 150.964844 29.121094 M 158.71875 42.972656 L 164.914062 42.972656 L 166.851562 29.238281 C 167.230469 29.097656 167.703125 29.023438 168.128906 29.023438 C 169.074219 29.023438 169.925781 29.425781 169.734375 30.796875 L 168.011719 42.972656 L 174.179688 42.972656 L 175.90625 30.75 C 176.640625 25.503906 172.996094 23.589844 168.410156 23.589844 C 165.953125 23.589844 163.351562 24.179688 161.226562 25.125 L 158.71875 42.972656 "/>
<g clip-path="url(#clip1)" clip-rule="nonzero">
<path style=" stroke:none;fill-rule:nonzero;fill:rgb(91.954041%,12.600708%,15.896606%);fill-opacity:1;" d="M 110.351562 45.785156 L 109.289062 45.785156 L 105.601562 53.183594 L 106.523438 53.183594 L 107.679688 50.820312 L 110.542969 50.820312 L 111.085938 53.183594 L 112.007812 53.183594 Z M 110.375 49.921875 L 108.105469 49.921875 C 108.648438 48.8125 109.171875 47.796875 109.691406 46.707031 Z M 118.34375 45.785156 L 117.46875 45.785156 L 116.429688 53.183594 L 117.304688 53.183594 Z M 126.898438 53.183594 L 127.964844 53.183594 L 126.003906 50.160156 C 127.277344 50.089844 128.34375 49.472656 128.554688 48.007812 C 128.742188 46.425781 127.75 45.785156 126.332031 45.785156 L 123.519531 45.785156 L 122.480469 53.183594 L 123.355469 53.183594 L 123.78125 50.160156 L 124.914062 50.160156 Z M 123.921875 49.355469 L 124.300781 46.660156 L 126.261719 46.660156 C 127.230469 46.636719 127.867188 46.96875 127.703125 48.007812 C 127.5625 49.023438 126.878906 49.355469 125.882812 49.355469 Z M 132.597656 53.183594 L 137.019531 53.183594 L 137.136719 52.308594 L 133.589844 52.308594 L 134.511719 45.785156 L 133.636719 45.785156 Z M 143.472656 45.785156 L 142.597656 45.785156 L 141.558594 53.183594 L 142.433594 53.183594 Z M 152.550781 51.980469 L 149.617188 45.785156 L 148.671875 45.785156 L 147.632812 53.183594 L 148.507812 53.183594 L 149.335938 47.25 L 152.195312 53.183594 L 153.257812 53.183594 L 154.300781 45.785156 L 153.425781 45.785156 Z M 160.230469 46.660156 L 164.109375 46.660156 L 164.226562 45.785156 L 159.476562 45.785156 L 158.4375 53.183594 L 163.1875 53.183594 L 163.304688 52.308594 L 159.429688 52.308594 L 159.761719 49.921875 L 163.328125 49.921875 L 163.445312 49.046875 L 159.878906 49.046875 Z M 169.382812 47.652344 C 169.546875 46.875 170.421875 46.542969 171.273438 46.542969 C 172.054688 46.542969 172.832031 46.847656 173.046875 47.535156 L 173.894531 47.179688 C 173.589844 46.140625 172.503906 45.667969 171.414062 45.667969 C 170.136719 45.667969 168.789062 46.328125 168.53125 47.628906 C 168.339844 49.117188 169.523438 49.496094 170.703125 49.734375 C 171.722656 49.945312 172.667969 50.160156 172.429688 51.222656 C 172.265625 52.027344 171.34375 52.40625 170.46875 52.40625 C 169.664062 52.40625 168.886719 52.050781 168.671875 51.339844 L 167.820312 51.695312 C 168.128906 52.757812 169.238281 53.28125 170.351562 53.28125 C 171.675781 53.28125 173.046875 52.617188 173.304688 51.269531 C 173.660156 49.449219 172.289062 49.167969 171.035156 48.929688 C 170.066406 48.742188 169.191406 48.550781 169.382812 47.652344 "/>
</g>
</g>
</svg>

<svg xmlns="http://www.w3.org/2000/svg" width="176pt" height="71.04" viewBox="0 0 176 53.28"><defs><clipPath id="a"><path d="M105 45h69v8.281h-69Zm0 0"/></clipPath></defs><path d="M43.379 10.965h.047c3.097-.332 6.195-3.121 5.699-6.406-.45-3.004-3.168-4.895-6.074-4.516-1.656.21-3.64 1.23-4.469 2.742-.781 1.371-.898 3.028-.59 4.54.543 2.527 2.953 3.71 5.387 3.64" style="stroke:none;fill-rule:nonzero;fill:#ea2029;fill-opacity:1"/><path d="M7 25.055c.355-3.075-1.918-4.492-3.996-5.035-1.844-.426-3.356-.665-2.934-2.082a2 2 0 0 0 .075-.141c.66-1.418 2.316-2.152 4.539-2.742.304-.07.613-.164.945-.239 2.078-.472 4.539-.66 6.902-1.086 1.063-.187 2.078-.425 3.024-.757 2.199-.97 3.617-3.094 4.515-5.246.38-.875.664-1.774.875-2.602.332-1.3.57-2.434.97-3.262.401-.758.972-1.254 1.866-1.394 1.75-.192 2.461 1.726 3.028 4.492.664 3.191.566 7.684 2.105 10.426.824 1.11 2.41 1.511 4.3 1.511 2.247 0 4.919-.59 7.306-1.3 2.98-.875 5.578-1.68 7.234-1.536.851.07 1.465.403 1.773 1.133.07.192.094.403.094.617-.355 1.723-3.355 3.735-7.187 6.075-4.844 2.906-10.97 5.531-13.45 8.508a4.06 4.06 0 0 0-.78 1.87c-.684 2.93 1.679 6.735 4.421 9.856 2.625 2.98 5.059 5.508 4.941 7.164-.097.332-.332.637-.734.875-.402.258-.898.38-1.441.356-2.176-.075-5.414-2.13-8.961-4.754-4.465-3.285-8.676-7.754-12.055-9.125-.309-.094-.613-.164-.922-.164-2.484-.07-4.656 2.906-6.05 5.812-1.255 2.695-2.2 5.012-3.266 4.8-.211-.046-.426-.187-.66-.448-.59-.684-.782-1.867-.735-3.38.07-1.491.403-3.265.828-5.226.805-3.664 2.317-7.66 3.051-10.898.164-.73.305-1.418.379-2.078M55.082 36.566c-.52 1.11-1.465 1.582-2.316 1.582-.852 0-1.61-.59-1.465-1.605l.875-6.098c.14-1.066 1.062-1.61 1.937-1.61.782 0 1.535.52 1.606 1.61l5.437-1.61c-.543-4.065-3.734-5.198-6.312-5.198-3.852 0-8.059 1.937-8.723 6.593l-.875 6.196c-.66 4.633 2.98 6.926 6.836 6.926 2.574 0 6.238-1.325 8.176-5.579Zm6.547.07c-.613 4.446 2.934 6.716 6.785 6.716 3.902 0 8.11-2.247 8.723-6.715l.851-6.004c.664-4.703-2.906-6.973-6.761-6.996-3.875.047-8.106 2.316-8.77 6.996Zm8.773-7.515c.73 0 1.582.52 1.465 1.395l-.851 6.191c-.141 1.016-1.063 1.441-1.868 1.441-.804 0-1.539-.543-1.441-1.441l.852-6.191c.117-.899 1.109-1.395 1.843-1.395m18.012-5.508c-4.586 0-7.988 2.246-8.7 7.422L78.06 42.996h6.195l1.656-11.89c.281-2.106 3.238-2.41 4.867-1.844l.735-5.176c-1.516-.402-2.434-.473-3.098-.473m8.39 12.242c4.4.997 9.294-.8 9.954-5.292.687-4.657-2.387-6.973-6.313-6.973-3.922 0-8.152 2.504-8.816 7.254l-.781 5.437c-.66 4.633 2.933 7.047 6.761 7.047 2.2 0 4.801-.402 7.45-3.074l-2.98-3.004c-1.75 1.656-5.673 1.469-5.274-1.395m.851-5.46c.145-1.063 1.184-1.676 2.059-1.676 1.18 0 1.605.875 1.465 1.773-.211 1.914-2.27 2.387-3.782 1.723Zm8.844 12.578h6.191l1.942-13.735c.351-.14.847-.215 1.273-.215.95 0 1.797.403 1.61 1.774l-1.727 12.176h6.172l1.727-12.223c.73-5.246-2.91-7.16-7.497-7.16-2.46 0-5.058.59-7.187 1.535Zm36.594-25.98h-6.242l-.946 6.972a7.7 7.7 0 0 0-2.41-.375c-3.664 0-7.234 2.125-7.824 6.383l-.922 6.5c-.734 5.175 2.79 6.855 6.785 6.855 2.79 0 5.695-.734 8.059-1.61Zm-9.266 21.37a3.9 3.9 0 0 1-1.183.188c-1.016 0-2.008-.45-1.868-1.535l.946-6.598c.187-1.18 1.277-1.652 2.246-1.652.472 0 .875.07 1.18.21Zm8.367-1.726c-.613 4.445 2.934 6.715 6.785 6.715 3.903 0 8.11-2.247 8.723-6.715l.852-6.004c.66-4.703-2.91-6.973-6.762-6.996-3.898.047-8.11 2.316-8.77 6.996Zm8.77-7.516c.734 0 1.586.52 1.469 1.395l-.856 6.191c-.14 1.016-1.062 1.441-1.863 1.441-.805 0-1.54-.543-1.422-1.441l.852-6.191c.093-.899 1.085-1.395 1.82-1.395m7.754 13.852h6.195l1.938-13.735c.378-.14.851-.215 1.277-.215.945 0 1.797.403 1.605 1.774l-1.722 12.176h6.168l1.726-12.223c.735-5.246-2.91-7.16-7.496-7.16-2.457 0-5.058.59-7.183 1.535z" style="stroke:none;fill-rule:nonzero;fill:#ea2029;fill-opacity:1"/><g clip-path="url(#a)"><path d="M110.352 45.785h-1.063l-3.687 7.399h.921l1.157-2.364h2.863l.543 2.364h.922Zm.023 4.137h-2.27c.543-1.11 1.067-2.125 1.586-3.215Zm7.969-4.137h-.875l-1.04 7.399h.876Zm8.554 7.399h1.067l-1.961-3.024c1.273-.07 2.34-.687 2.55-2.152.188-1.582-.804-2.223-2.222-2.223h-2.812l-1.04 7.399h.875l.426-3.024h1.133Zm-2.976-3.829.379-2.695h1.96c.97-.023 1.606.309 1.442 1.348-.14 1.015-.824 1.347-1.82 1.347Zm8.676 3.829h4.422l.117-.875h-3.547l.922-6.524h-.875Zm10.875-7.399h-.875l-1.04 7.399h.876Zm9.078 6.195-2.934-6.195h-.945l-1.04 7.399h.876l.828-5.934 2.86 5.934h1.062l1.043-7.399h-.875Zm7.68-5.32h3.878l.118-.875h-4.75l-1.04 7.399h4.75l.118-.875h-3.875l.332-2.387h3.566l.117-.875h-3.566Zm9.152.992c.164-.777 1.039-1.109 1.89-1.109.782 0 1.559.305 1.774.992l.848-.355c-.305-1.04-1.391-1.512-2.48-1.512-1.278 0-2.626.66-2.884 1.96-.191 1.49.992 1.868 2.172 2.106 1.02.211 1.965.426 1.727 1.489-.164.804-1.086 1.183-1.961 1.183-.805 0-1.582-.355-1.797-1.066l-.852.355c.309 1.063 1.418 1.586 2.532 1.586 1.324 0 2.695-.664 2.953-2.011.355-1.82-1.016-2.102-2.27-2.34-.969-.188-1.844-.38-1.652-1.278" style="stroke:none;fill-rule:nonzero;fill:#ea2029;fill-opacity:1"/></g></svg>
